X: 28908
T: Na Ceannabháin Bhána
R: slip jig
M: 9/8
K: Amajor
c2A BAF AFE|FAE EFA B3|cAA BAF AFE|FAE EFA A2B|
cAA BAF AFE|FAE EFA B3|cAA BAF AFE|FAE EFA A2B||
cee fee cBA|cee fec B3|cee fee cBA|AFE EFA A2B|
cee fee cBA|Ace aec B3|cee fae cBA|AFE EFA A3||

